24x24/panel/copy-sync3.svg

<svg height="24" width="24" xmlns="http://www.w3.org/2000/svg"><g fill="#bebebe"><path d="m20.635 3.025-5.617 6.819 1.982 1.156 4-7.649zm-14.635 4.475-4 3.5 4.375-.625.95 5.625h3.386l-3.211-8zm7 2.53-3 .97 1 3 4-3zm3 1.57-5.144 4.4h8.343l-1.199-3zm-11.164 5.4a.834.834 0 0 0 -.836.836v1.328c0 .463.373.836.836.836h5.164v-3z"/><path d="m10 17v3h9.164a.836.836 0 0 0 .836-.838v-1.326a.834.834 0 0 0 -.836-.836z" opacity=".4"/></g></svg>

<svg xmlns="http://www.w3.org/2000/svg" width="24" height="24"><defs><style id="current-color-scheme" type="text/css">.ColorScheme-Text{color:#bebebe}</style></defs><path class="ColorScheme-Text" d="m20.635 3.025-5.617 6.819L17 11l4-7.649zM6 7.5 2 11l4.375-.625.95 5.625h3.386L7.5 8zm7 2.53L10 11l1 3 4-3zm3 1.57L10.856 16h8.343L18 13zM4.836 17a.834.834 0 0 0-.836.836v1.328c0 .463.373.836.836.836H10v-3H4.836z" fill="currentColor"/><path class="ColorScheme-Text" d="M4.836 17zM10 17v3h9.164a.836.836 0 0 0 .836-.838v-1.326a.834.834 0 0 0-.836-.836H10z" opacity=".4" fill="currentColor"/></svg>
